lib/flags/nf-norfolk-island.svg

<svg xmlns="http://www.w3.org/2000/svg" fill="none" aria-hidden="true" viewBox="0 0 42 30"><g id="Country=NF - Norfolk Island, Size=sm (36x24)" filter="url(#filter0_dd_91_26166)"><g clip-path="url(#clip0_91_26166)"><g id="flag"><mask id="mask0_91_26166" width="36" height="24" x="3" y="2" maskUnits="userSpaceOnUse" style="mask-type:alpha"><rect id="mask" width="36" height="24" x="3" y="2" fill="white"/></mask><g mask="url(#mask0_91_26166)"><g id="contents"><path id="bottom" fill="#409100" fill-rule="evenodd" d="M27.75 2H39V26H27.75V2Z" clip-rule="evenodd"/><path id="left" fill="#409100" fill-rule="evenodd" d="M3 2H14.25V26H3V2Z" clip-rule="evenodd"/><path id="middle" fill="white" fill-rule="evenodd" d="M14.25 2H27.75V26H14.25V2Z" clip-rule="evenodd"/><g id="mark"><path id="Path 191" fill="#409100" fill-rule="evenodd" d="M17.2823 20.7703C15.5322 21.0234 14.9804 20.2641 14.9804 20.2641L15.2008 20.1032C15.3488 19.9951 15.8474 20.0322 16.3317 20.0682C16.5685 20.0858 16.8018 20.1032 16.9891 20.1032C17.2622 20.1032 17.5765 20.0665 17.904 20.0284C18.2601 19.9869 18.6317 19.9436 18.9828 19.9436C19.6568 19.9436 16.9891 19.1601 16.4189 19.6406C15.8488 20.1211 14.25 19.418 14.25 19.017C14.25 18.7434 14.8386 18.8432 15.3755 18.9342C15.6254 18.9765 15.8642 19.017 16.0271 19.017C16.54 19.017 15.5143 18.1277 14.9804 18.1277C14.4465 18.1277 15.5143 17.9212 16.0271 17.9212C16.3191 17.9212 16.5905 17.9881 16.8242 18.0458C17.0009 18.0894 17.156 18.1277 17.2823 18.1277C17.5755 18.1277 15.8098 17.4531 15.5143 17.4531H16.9891C17.4952 17.4531 17.6181 17.5165 17.7346 17.5766C17.8395 17.6307 17.9392 17.6821 18.3088 17.6821C19.0889 17.6821 18.6617 17.3029 18.6617 17.3029C18.6617 17.3029 16.0271 17.0597 15.5143 16.7239C15.1675 16.4968 16.0981 16.5768 16.9776 16.6525L16.9777 16.6525C17.3989 16.6887 17.8084 16.7239 18.0603 16.7239C18.8383 16.7239 16.4189 16.2303 16.0271 16.2303H17.8101C18.2004 16.2303 18.6289 16.3418 19.0785 16.4589L19.0785 16.4589C19.5746 16.588 20.0964 16.7239 20.6209 16.7239C21.1739 16.7239 20.094 16.4307 18.9076 16.1086L18.9076 16.1086C17.9489 15.8483 16.9208 15.5692 16.6286 15.4106C16.3264 15.2466 16.5563 15.3101 16.9751 15.4258C17.4619 15.5603 18.2039 15.7654 18.6617 15.7654C19.5134 15.7654 17.5287 15.0227 16.9891 15.0227C16.4494 15.0227 15.9328 14.8068 16.4189 14.6073C16.7174 14.4847 17.4949 14.6693 18.172 14.83C18.5977 14.9311 18.9837 15.0227 19.1862 15.0227C19.4316 15.0227 19.6131 15.1077 19.8062 15.1981C20.0258 15.3008 20.2603 15.4106 20.6209 15.4106C21.2987 15.4106 19.1862 14.6073 18.3088 14.6073C17.4314 14.6073 17.2823 14.2289 17.8101 14.2289C18.3379 14.2289 16.6286 13.5843 16.6286 13.5843C16.6286 13.5843 16.3809 13.1271 16.9891 13.1271H17.8101C18.0915 13.1271 17.5287 12.3342 16.9891 12.3342C16.4494 12.3342 16.92 12.0947 17.8101 12.0947C18.3513 12.0947 18.6679 12.2607 19.0489 12.4605C19.2945 12.5893 19.5668 12.7321 19.9431 12.8535C20.9035 13.1632 20.1791 12.3342 19.9431 12.3342C19.7072 12.3342 17.2823 11.6586 17.2823 11.6586C17.2823 11.6586 17.5287 11.4097 17.2823 11.0708C17.0963 10.815 17.8702 10.9453 18.3414 11.0246C18.4947 11.0504 18.6159 11.0708 18.6617 11.0708C18.7733 11.0708 19.0936 11.1416 19.487 11.2285L19.487 11.2285C19.7525 11.2871 20.0513 11.3531 20.3416 11.4097C21.0621 11.5501 17.8942 10.3756 17.5287 10.3756C17.1632 10.3756 18.3088 10.1826 18.9828 10.1826C19.3142 10.1826 19.474 10.2293 19.6365 10.2767C19.8045 10.3257 19.9754 10.3756 20.3416 10.3756C21.0621 10.3756 18.9828 9.68918 18.3088 9.68918C17.6348 9.68918 18.0333 9.0981 18.3088 9.0981C18.4161 9.0981 18.6875 9.12981 19.0191 9.16855L19.0191 9.16855C19.5392 9.2293 20.207 9.30732 20.6209 9.30732C20.9361 9.30732 20.6481 9.22883 20.2292 9.11467L20.2292 9.11467C19.7471 8.98327 19.0916 8.80462 18.9828 8.64401C18.8627 8.46673 19.1071 8.49885 19.5333 8.55487L19.5333 8.55487C19.6104 8.56499 19.6933 8.57589 19.7811 8.58648C20.0717 8.72184 20.3145 8.80927 20.35 8.70604C20.3602 8.67634 20.3831 8.65511 20.4121 8.63984C20.4807 8.64251 20.5504 8.64401 20.6209 8.64401C21.0227 8.64401 20.837 8.58957 20.4503 8.52445L20.4157 8.51506C19.829 8.35561 18.5593 8.01474 19.0343 8.22509C19.1273 8.26629 19.2318 8.31712 19.3403 8.3708C19.0202 8.33309 18.7511 8.30695 18.6617 8.30695C18.3406 8.30695 18.0187 8.08643 18.6617 8.08643H19.9431C19.5446 8.08643 18.9828 8.08643 18.9828 7.80816C18.9828 7.61876 19.4276 7.68717 19.8374 7.7502C20.0298 7.77977 20.2144 7.80816 20.3416 7.80816C20.7401 7.80816 20.8393 7.80816 20.6209 7.64261C20.4136 7.48542 19.6986 7.4862 19.2546 7.48667L19.1862 7.48672C18.7512 7.48672 20.1084 7.2847 20.6209 7.2847C20.7071 7.2847 20.7451 7.2847 20.7452 7.28325C20.7452 7.28211 20.7216 7.28006 20.6792 7.2764C20.4562 7.25713 19.7153 7.19309 19.1862 6.98032C18.7128 6.78999 19.1275 6.8377 19.6704 6.90017C19.9957 6.9376 20.367 6.98032 20.6209 6.98032C21.2987 6.98032 20.3416 6.57514 19.6211 6.57514C19.0428 6.57514 19.3184 6.43473 19.676 6.25252C19.7639 6.20772 19.8568 6.16039 19.9431 6.112C20.2031 5.96634 20.3934 6.21484 20.5051 6.36064C20.5814 6.46026 20.6209 6.51194 20.6209 6.35719C20.6209 6.20615 20.5771 6.1103 20.5415 6.05992C20.5605 6.07412 20.5865 6.09158 20.6209 6.112C20.9003 6.27765 20.6209 5.67743 20.6209 5.67743C20.6209 5.67743 20.3416 5.51168 20.6209 5.51168C20.9003 5.51168 20.5311 5.22673 20.3416 5.22673C20.1522 5.22673 20.8393 4.95411 20.8393 4.95411L20.9907 3.7998C20.9907 3.7998 21.3652 5.05759 21.3652 5.22673V6.112C21.3652 6.32276 21.1976 6.46981 21.0854 6.56819C20.9448 6.69157 20.8914 6.73843 21.3652 6.73843C22.2168 6.73843 22.1805 6.98032 21.6622 6.98032C21.1438 6.98032 21.811 7.2847 22.7418 7.2847C23.6726 7.2847 21.9613 7.64261 21.3652 7.64261C20.7691 7.64261 21.9613 7.80816 22.7418 7.80816C23.2688 7.80816 22.7282 7.97009 22.2294 8.11949C21.9895 8.19135 21.7593 8.2603 21.6622 8.30695C21.5074 8.38128 21.8889 8.3787 22.2931 8.35889C22.0807 8.41453 21.8697 8.47155 21.7096 8.51506L21.7096 8.51506C21.5159 8.56771 21.4501 8.58559 21.4512 8.59279C21.4518 8.5965 21.4701 8.59738 21.4978 8.59872C21.5793 8.60266 21.7424 8.61055 21.7753 8.70604C21.8243 8.84854 22.2683 8.62771 22.6879 8.41903C22.7551 8.3856 22.8217 8.35249 22.8859 8.32122C22.9962 8.31293 23.0671 8.30695 23.0671 8.30695C23.0671 8.30695 23.4528 8.70258 23.4528 8.94417C23.4528 9.08507 22.9454 9.1266 22.4042 9.17089L22.3497 9.17536C22.3769 9.14357 22.2618 9.16021 22.0926 9.19738C21.812 9.22305 21.547 9.25483 21.3652 9.30732C21.1916 9.35745 21.2209 9.37838 21.362 9.38287L21.3237 9.39326L21.3237 9.39326C21.191 9.42931 21.1453 9.44173 21.1462 9.44886C21.1466 9.45261 21.1599 9.45489 21.1801 9.45838C21.2389 9.4685 21.3565 9.48875 21.3894 9.58424C21.4384 9.72675 21.7349 9.546 22.0151 9.3752L22.0415 9.35908C22.1293 9.35404 22.219 9.34865 22.3077 9.34331L22.3079 9.3433L22.308 9.34329L22.3081 9.34329C22.613 9.32495 22.9063 9.30732 23.0671 9.30732C23.5695 9.30732 22.5647 9.5226 22.1805 9.5226C22.0171 9.5226 22.2231 9.55551 22.5372 9.60571C22.9614 9.67349 23.5828 9.77277 23.7584 9.8651C23.9682 9.97545 23.3521 9.93426 22.8038 9.89761L22.8038 9.89761C22.5536 9.88088 22.3175 9.8651 22.1805 9.8651C21.7434 9.8651 21.6622 10.1826 21.9613 10.1826H23.0671C23.4854 10.1826 23.9208 10.7514 23.7584 10.7514C23.7092 10.7514 23.6038 10.7807 23.4568 10.8216C23.1187 10.9156 22.5607 11.0708 21.9613 11.0708C21.1013 11.0708 23.0671 11.0716 23.4528 11.0708C23.8386 11.07 24.939 11.0716 24.939 11.4097C24.939 11.62 24.7307 11.6662 24.4577 11.7267C24.2919 11.7635 24.1022 11.8056 23.9208 11.893C23.441 12.1242 25.3558 12.3342 25.3558 12.3342C25.3558 12.3342 24.5979 12.5437 24.2291 12.5437C23.8603 12.5437 24.4006 12.8535 25.3558 12.8535C26.0948 12.8535 25.8778 13.2104 25.7418 13.4342C25.7019 13.4997 25.6691 13.5538 25.6691 13.5843C25.6691 13.6432 25.5292 13.694 25.3269 13.7675C25.0668 13.862 24.7034 13.994 24.4006 14.2289C24.0523 14.4992 24.4755 14.4197 24.9537 14.3299L24.9537 14.3299C25.2146 14.2809 25.4918 14.2289 25.6691 14.2289C26.1711 14.2289 26.3849 14.2475 26.2215 14.4639C26.058 14.6803 24.5979 15.0227 24.2291 15.0227H26.2215C26.7739 15.0227 26.0667 15.4106 25.3558 15.4106C24.879 15.4106 24.6122 15.5702 24.4364 15.6753C24.35 15.7269 24.2856 15.7654 24.2291 15.7654H25.6691C25.7424 15.7654 25.8231 15.6611 25.897 15.5656C25.9619 15.4816 26.0217 15.4044 26.0667 15.4106C26.7181 15.5015 26.4259 16.2303 26.0667 16.2303C25.6546 16.2303 24.4006 16.4759 24.5979 16.7239C24.6934 16.8439 24.8426 16.7897 25.0844 16.7018C25.3423 16.608 25.7055 16.4759 26.2215 16.4759C27.2213 16.4759 26.3176 16.7239 26.0667 16.7239C25.8158 16.7239 24.7544 16.904 24.4006 17.0597C24.1645 17.1637 24.9861 17.1288 25.8033 17.0942C26.2103 17.0769 26.6161 17.0597 26.8897 17.0597C27.7127 17.0597 24.939 17.6821 23.9208 17.6821C22.9026 17.6821 24.5979 17.9212 24.939 17.9212C25.0699 17.9212 25.3237 17.9516 25.6367 17.989L25.6367 17.989H25.6367C26.1396 18.0492 26.7951 18.1277 27.338 18.1277C28.2188 18.1277 26.4573 18.6435 25.6691 18.6435C25.6086 18.6435 25.549 18.6432 25.4906 18.643H25.4903H25.49H25.4898H25.4896H25.4893H25.4891H25.4889C24.786 18.6405 24.2577 18.6385 24.5979 19.017C24.7871 19.2274 25.4168 19.1701 26.0739 19.1103C26.6977 19.0536 27.3462 18.9945 27.6665 19.1601C28.2417 19.4576 25.6963 19.4319 24.5981 19.4208H24.5981H24.5981C24.4411 19.4192 24.3136 19.418 24.2291 19.418C23.5538 19.418 24.9044 19.6406 26.0667 19.6406L26.2134 19.6406C27.252 19.64 27.4982 19.6399 27.4982 19.9436C27.4982 20.2105 25.2357 20.1415 24.2915 20.1126C24.1123 20.1072 23.9806 20.1032 23.9208 20.1032C23.7399 20.1032 23.6351 20.2003 23.5267 20.3008C23.4104 20.4086 23.29 20.5203 23.0671 20.5203C22.8836 20.5203 22.7974 20.4159 22.7188 20.3207C22.613 20.1925 22.5209 20.0811 22.2234 20.2641C21.705 20.583 22.7418 23.7998 22.7418 23.7998H19.9431V20.7703C19.9431 20.7703 19.0324 20.5172 17.2823 20.7703ZM20.4975 6.01627C20.4937 6.01699 20.5045 6.03227 20.5415 6.05992C20.52 6.02937 20.5014 6.01555 20.4975 6.01627ZM19.5238 18.0235C19.0816 17.8755 20.2022 17.8679 20.7206 17.8679C20.8888 17.8679 20.9478 17.8679 20.9508 17.8809C20.9524 17.8879 20.9377 17.8987 20.9149 17.9154C20.8501 17.9629 20.7206 18.058 20.7206 18.2481C20.7206 18.5318 20.3004 18.3494 19.9034 18.1771L19.9034 18.1771L19.9034 18.1771C19.7684 18.1185 19.636 18.061 19.5238 18.0235ZM20.44 16.8654C19.9216 16.8654 18.801 16.8731 19.2433 17.021C19.3555 17.0586 19.4878 17.116 19.6229 17.1747L19.6229 17.1747L19.6229 17.1747C20.0199 17.347 20.44 17.5294 20.44 17.2457C20.44 17.0556 20.5696 16.9605 20.6344 16.913C20.6571 16.8963 20.6719 16.8855 20.6703 16.8784C20.6672 16.8654 20.6082 16.8654 20.44 16.8654ZM19.5053 16.1953C19.1442 16.1176 20.0591 16.1136 20.4823 16.1136C20.6217 16.1136 20.6693 16.1136 20.6704 16.1208C20.6709 16.1245 20.659 16.1301 20.641 16.1386C20.5881 16.1635 20.4823 16.2135 20.4823 16.3133C20.4823 16.4623 20.1393 16.3665 19.8152 16.276C19.7049 16.2452 19.5969 16.2151 19.5053 16.1953ZM20.4157 13.026C19.829 12.8665 18.5593 12.5257 19.0343 12.736C19.1548 12.7894 19.2947 12.859 19.4374 12.93C19.857 13.1386 20.301 13.3595 20.35 13.217C20.3829 13.1215 20.546 13.1136 20.6275 13.1096C20.6552 13.1083 20.6735 13.1074 20.6741 13.1037C20.6752 13.0965 20.6095 13.0786 20.4157 13.026ZM19.0343 11.7336C18.5593 11.5232 19.829 11.8641 20.4157 12.0235C20.6095 12.0762 20.6752 12.0941 20.6741 12.1013C20.6735 12.105 20.6552 12.1059 20.6275 12.1072C20.546 12.1111 20.3829 12.119 20.35 12.2145C20.301 12.357 19.857 12.1362 19.4374 11.9275L19.4374 11.9275C19.2947 11.8565 19.1548 11.787 19.0343 11.7336ZM20.4157 10.7705C19.829 10.6111 18.5593 10.2702 19.0343 10.4806C19.1548 10.5339 19.2947 10.6035 19.4374 10.6745C19.857 10.8832 20.301 11.104 20.35 10.9615C20.3829 10.866 20.546 10.8581 20.6275 10.8542C20.6552 10.8528 20.6735 10.852 20.6741 10.8483C20.6752 10.8411 20.6095 10.8232 20.4158 10.7705L20.4158 10.7705L20.4158 10.7705L20.4157 10.7705L20.4157 10.7705ZM21.6853 17.6173C22.2037 17.6173 23.3243 17.6249 22.8821 17.7729C22.7698 17.8104 22.6375 17.8679 22.5024 17.9265C22.1054 18.0988 21.6853 18.2812 21.6853 17.9975C21.6853 17.8074 21.5557 17.7123 21.4909 17.6648C21.4682 17.6481 21.4534 17.6373 21.4551 17.6303C21.4581 17.6173 21.5171 17.6173 21.6853 17.6173ZM22.8821 17.021C23.3243 16.8731 22.2037 16.8654 21.6853 16.8654C21.5171 16.8654 21.4581 16.8654 21.4551 16.8784C21.4534 16.8855 21.4682 16.8963 21.4909 16.913C21.5557 16.9605 21.6853 17.0556 21.6853 17.2457C21.6853 17.5294 22.1054 17.347 22.5024 17.1747C22.6375 17.116 22.7698 17.0586 22.8821 17.021ZM21.643 15.6124C21.9957 15.6124 23.3446 15.335 23.5756 15.2875L23.5756 15.2875L23.5757 15.2875C23.6218 15.278 23.6233 15.2777 23.5631 15.2907C23.444 15.3163 23.1943 15.4036 22.9132 15.5019L22.9132 15.5019L22.9131 15.5019C22.3427 15.7013 21.643 15.9459 21.643 15.8121C21.643 15.7123 21.5372 15.6624 21.4843 15.6374C21.4662 15.6289 21.4544 15.6233 21.4549 15.6196C21.456 15.6124 21.5036 15.6124 21.643 15.6124ZM23.091 12.2348C23.566 12.0244 22.2963 12.3653 21.7096 12.5248C21.5159 12.5774 21.4501 12.5953 21.4512 12.6025C21.4518 12.6062 21.4701 12.6071 21.4978 12.6084C21.5793 12.6124 21.7424 12.6203 21.7753 12.7157C21.8243 12.8582 22.2683 12.6374 22.6879 12.4287C22.8306 12.3578 22.9705 12.2882 23.091 12.2348ZM21.7096 13.5272C22.2963 13.3677 23.566 13.0269 23.091 13.2372C22.9705 13.2906 22.8306 13.3602 22.6879 13.4311C22.2683 13.6398 21.8243 13.8607 21.7753 13.7182C21.7424 13.6227 21.5793 13.6148 21.4978 13.6108C21.4701 13.6095 21.4518 13.6086 21.4512 13.6049C21.4501 13.5977 21.5159 13.5798 21.7096 13.5272ZM23.091 11.2324C23.566 11.022 22.2963 11.3629 21.7096 11.5223L21.7096 11.5223L21.7096 11.5223L21.7095 11.5223L21.7095 11.5223C21.5158 11.575 21.4501 11.5929 21.4512 11.6001C21.4518 11.6038 21.4701 11.6046 21.4978 11.606C21.5793 11.6099 21.7424 11.6178 21.7753 11.7133C21.8243 11.8558 22.2683 11.635 22.6879 11.4263C22.8306 11.3553 22.9705 11.2857 23.091 11.2324ZM21.3237 10.6463C21.7284 10.5363 22.6046 10.3024 22.2849 10.4705C22.2038 10.5132 22.1104 10.5701 22.0151 10.6282L22.0151 10.6282L22.0151 10.6283C21.7349 10.7991 21.4384 10.9798 21.3894 10.8373C21.3565 10.7418 21.2389 10.7216 21.1801 10.7114C21.1599 10.7079 21.1466 10.7057 21.1462 10.7019C21.1453 10.6948 21.191 10.6824 21.3237 10.6463L21.3237 10.6463ZM21.5819 14.4603C21.1171 14.4603 21.5819 14.1338 21.5819 14.1338H21.8212C21.9033 14.1338 21.9767 14.1037 22.073 14.0642C22.2573 13.9887 22.5257 13.8786 23.1007 13.8786C23.9764 13.8786 22.0466 14.4603 21.5819 14.4603Z" clip-rule="evenodd"/></g></g></g></g></g></g><defs><filter id="filter0_dd_91_26166" width="42" height="30" x="0" y="0" color-interpolation-filters="sRGB" filterUnits="userSpaceOnUse"><feFlood flood-opacity="0" result="BackgroundImageFix"/><feColorMatrix in="SourceAlpha" result="hardAlpha" values="0 0 0 0 0 0 0 0 0 0 0 0 0 0 0 0 0 0 127 0"/><feOffset dy="1"/><feGaussianBlur stdDeviation="1"/><feColorMatrix values="0 0 0 0 0.0627451 0 0 0 0 0.0941176 0 0 0 0 0.156863 0 0 0 0.06 0"/><feBlend in2="BackgroundImageFix" result="effect1_dropShadow_91_26166"/><feColorMatrix in="SourceAlpha" result="hardAlpha" values="0 0 0 0 0 0 0 0 0 0 0 0 0 0 0 0 0 0 127 0"/><feOffset dy="1"/><feGaussianBlur stdDeviation="1.5"/><feColorMatrix values="0 0 0 0 0.0627451 0 0 0 0 0.0941176 0 0 0 0 0.156863 0 0 0 0.1 0"/><feBlend in2="effect1_dropShadow_91_26166" result="effect2_dropShadow_91_26166"/><feBlend in="SourceGraphic" in2="effect2_dropShadow_91_26166" result="shape"/></filter><clipPath id="clip0_91_26166"><rect width="36" height="24" x="3" y="2" fill="white" rx="2"/></clipPath></defs></svg>

<svg xmlns="http://www.w3.org/2000/svg" fill="none" aria-hidden="true" viewBox="0 0 42 30"><g filter="url(#a)"><g clip-path="url(#b)"><mask id="c" width="36" height="24" x="3" y="2" maskUnits="userSpaceOnUse" style="mask-type:alpha"><path fill="#fff" d="M3 2h36v24H3z"/></mask><g fill-rule="evenodd" clip-rule="evenodd" mask="url(#c)"><path fill="#409100" d="M27.75 2H39v24H27.75V2ZM3 2h11.25v24H3V2Z"/><path fill="#fff" d="M14.25 2h13.5v24h-13.5V2Z"/><path fill="#409100" d="M17.282 20.77c-1.75.253-2.302-.506-2.302-.506l.22-.16c.149-.109.647-.072 1.132-.036.236.018.47.035.657.035.273 0 .587-.037.915-.075a9.532 9.532 0 0 1 1.079-.084c.674 0-1.994-.784-2.564-.303-.57.48-2.169-.223-2.169-.624 0-.274.589-.174 1.126-.083.25.043.488.083.651.083.513 0-.513-.89-1.047-.89-.534 0 .534-.206 1.047-.206.292 0 .563.067.797.125.177.043.332.082.458.082.294 0-1.472-.675-1.768-.675h1.475c.506 0 .63.064.746.124.105.054.204.105.574.105.78 0 .353-.38.353-.38s-2.635-.242-3.148-.578c-.346-.227.584-.147 1.464-.072.42.037.83.072 1.082.072.778 0-1.641-.494-2.033-.494h1.783c.39 0 .819.112 1.268.229.497.129 1.018.265 1.543.265.553 0-.527-.293-1.713-.615-.96-.26-1.987-.54-2.28-.698-.302-.164-.072-.1.347.015.487.134 1.229.34 1.687.34.851 0-1.133-.743-1.673-.743s-1.056-.216-.57-.416c.298-.122 1.076.062 1.753.223.426.101.812.193 1.014.193.246 0 .427.085.62.175.22.103.454.213.815.213.678 0-1.435-.804-2.312-.804-.878 0-1.027-.378-.499-.378.528 0-1.181-.645-1.181-.645s-.248-.457.36-.457h.821c.282 0-.281-.793-.82-.793-.54 0-.07-.24.82-.24.541 0 .858.167 1.239.367.245.128.518.271.894.393.96.31.236-.52 0-.52s-2.66-.675-2.66-.675.246-.25 0-.588c-.187-.256.587-.126 1.058-.046.154.025.275.046.32.046.112 0 .433.07.826.158.266.058.564.124.855.18.72.141-2.448-1.033-2.813-1.033-.366 0 .78-.193 1.454-.193.331 0 .491.046.654.094.168.049.338.099.705.099.72 0-1.36-.687-2.033-.687-.674 0-.276-.59 0-.59.107 0 .378.03.71.07.52.06 1.188.138 1.602.138.315 0 .027-.078-.392-.192-.482-.132-1.137-.31-1.246-.471-.12-.177.124-.145.55-.09.077.011.16.022.248.032.29.136.534.223.569.12a.12.12 0 0 1 .062-.066c.069.003.138.004.209.004.402 0 .216-.054-.17-.12l-.035-.009c-.587-.16-1.857-.5-1.382-.29.093.041.198.092.306.146a9.083 9.083 0 0 0-.678-.064c-.321 0-.643-.22 0-.22h1.281c-.398 0-.96 0-.96-.279 0-.19.445-.12.854-.058.193.03.377.058.505.058.398 0 .497 0 .279-.165-.207-.158-.922-.157-1.366-.156h-.069c-.435 0 .922-.202 1.435-.202.086 0 .124 0 .124-.002a.605.605 0 0 0-.066-.007c-.223-.019-.964-.083-1.493-.296-.473-.19-.058-.142.484-.08.326.038.697.08.95.08.679 0-.278-.405-.999-.405-.578 0-.303-.14.055-.322.088-.045.18-.093.267-.141.26-.146.45.103.562.249.076.1.116.15.116-.004a.511.511 0 0 0-.08-.297.911.911 0 0 0 .08.052c.28.166 0-.435 0-.435s-.28-.165 0-.165-.09-.285-.28-.285c-.189 0 .498-.273.498-.273l.152-1.154s.374 1.258.374 1.427v.885c0 .21-.167.358-.28.456-.14.124-.194.17.28.17.852 0 .816.242.297.242-.518 0 .149.305 1.08.305.93 0-.78.358-1.377.358-.596 0 .596.165 1.377.165.527 0-.014.162-.513.311-.24.072-.47.141-.567.188-.155.074.227.072.631.052l-.583.156c-.194.053-.26.07-.259.078 0 .004.02.004.047.006.081.004.244.012.277.107.05.143.493-.078.913-.287l.198-.098.181-.014s.386.396.386.637c0 .141-.508.183-1.049.227l-.054.004c.027-.031-.088-.015-.257.022a4.429 4.429 0 0 0-.728.11c-.173.05-.144.071-.003.076l-.038.01c-.133.036-.179.049-.178.056 0 .004.014.006.034.01.059.01.177.03.21.125.048.143.345-.038.625-.209l.026-.016.267-.016c.305-.018.598-.036.76-.036.502 0-.503.216-.888.216-.163 0 .043.033.357.083.424.067 1.046.167 1.221.26.21.11-.406.068-.954.032-.25-.017-.486-.033-.623-.033-.438 0-.519.318-.22.318h1.106c.418 0 .854.568.691.568-.049 0-.154.03-.301.07-.338.095-.896.25-1.496.25h1.492c.386-.001 1.486 0 1.486.339 0 .21-.208.256-.481.317-.166.037-.356.079-.537.166-.48.231 1.435.441 1.435.441s-.758.21-1.127.21.172.31 1.127.31c.739 0 .522.356.386.58-.04.066-.073.12-.073.15 0 .06-.14.11-.342.184-.26.094-.624.226-.926.46-.349.271.075.192.553.102.26-.05.538-.101.715-.101.502 0 .716.019.552.235-.163.216-1.623.559-1.992.559h1.992c.553 0-.154.388-.865.388-.477 0-.744.16-.92.264-.086.052-.15.09-.207.09h1.44c.073 0 .154-.104.228-.2.065-.083.125-.16.17-.154.651.09.359.82 0 .82-.412 0-1.666.245-1.47.493.096.12.246.066.487-.022a3.104 3.104 0 0 1 1.137-.226c1 0 .097.248-.154.248s-1.313.18-1.666.336c-.236.104.585.069 1.402.034.407-.017.813-.034 1.087-.034.823 0-1.951.622-2.97.622-1.017 0 .678.24 1.019.24.13 0 .385.03.698.067.503.06 1.158.139 1.701.139.88 0-.88.515-1.669.515h-.18c-.703-.003-1.231-.005-.891.374.19.21.819.153 1.476.093.624-.056 1.272-.116 1.592.05.576.298-1.97.272-3.068.26a42.296 42.296 0 0 0-.369-.002c-.675 0 .675.223 1.838.223h.146c1.039-.001 1.285-.001 1.285.303 0 .267-2.262.198-3.207.169-.179-.006-.31-.01-.37-.01-.181 0-.286.097-.394.198-.117.108-.237.22-.46.22-.183 0-.27-.105-.348-.2-.106-.129-.198-.24-.496-.057-.518.319.519 3.536.519 3.536h-2.799v-3.03s-.91-.253-2.66 0Zm3.215-14.754c-.003.001.008.016.044.044-.021-.03-.04-.044-.044-.044Zm-.973 12.007c-.442-.148.678-.155 1.197-.155.168 0 .227 0 .23.013.001.007-.013.018-.036.034-.065.048-.194.143-.194.333 0 .284-.42.101-.818-.07a4.644 4.644 0 0 0-.38-.155Zm.916-1.158c-.518 0-1.639.008-1.197.156.113.038.245.095.38.154.397.172.817.354.817.07 0-.19.13-.285.194-.332.023-.017.038-.027.036-.035-.003-.013-.062-.013-.23-.013Zm-.935-.67c-.36-.077.554-.081.977-.081.14 0 .187 0 .188.007 0 .004-.011.01-.029.018-.053.024-.159.075-.159.174 0 .15-.343.053-.667-.037a5.75 5.75 0 0 0-.31-.08Zm.91-3.169c-.586-.16-1.856-.5-1.38-.29.12.053.26.123.402.194.42.209.864.43.913.287.033-.096.196-.103.277-.107.028-.002.047-.003.047-.006.001-.007-.064-.025-.258-.078Zm-1.38-1.292c-.476-.21.794.13 1.38.29.195.052.26.07.26.077-.002.004-.02.005-.047.006-.082.004-.245.012-.278.107-.049.143-.493-.078-.913-.287-.142-.07-.282-.14-.403-.193Zm1.38-.963c-.586-.16-1.856-.5-1.38-.29.12.053.26.123.402.194.42.208.864.429.913.286.033-.095.196-.103.277-.107.028-.001.047-.002.047-.006.001-.007-.064-.025-.258-.078Zm1.27 6.846c.519 0 1.64.008 1.197.156a4.757 4.757 0 0 0-.38.154c-.397.172-.817.354-.817.07 0-.19-.13-.285-.194-.332-.023-.017-.038-.028-.036-.035.003-.013.062-.013.23-.013Zm1.197-.596c.442-.148-.678-.156-1.197-.156-.168 0-.227 0-.23.013-.002.008.013.018.036.035.065.047.194.143.194.333 0 .283.42.101.817-.071a5.07 5.07 0 0 1 .38-.154Zm-1.239-1.409c.353 0 1.702-.277 1.933-.325a.495.495 0 0 1-.013.004c-.119.025-.369.113-.65.21-.57.2-1.27.445-1.27.311 0-.1-.106-.15-.159-.175-.018-.008-.03-.014-.03-.017.002-.008.05-.008.189-.008Zm1.448-3.377c.475-.21-.795.13-1.381.29-.194.052-.26.07-.259.077 0 .004.02.005.047.006.081.004.244.012.277.108.05.142.493-.079.913-.287.143-.071.283-.14.403-.194Zm-1.381 1.292c.586-.16 1.856-.5 1.381-.29-.12.054-.26.123-.403.194-.42.209-.864.43-.913.287-.033-.095-.196-.103-.277-.107-.028-.002-.046-.002-.047-.006 0-.007.065-.025.259-.078Zm1.381-2.295c.475-.21-.795.13-1.381.29-.194.053-.26.07-.259.078 0 .004.02.005.047.006.081.004.244.012.277.107.05.143.493-.078.913-.287.143-.07.283-.14.403-.194Zm-1.767-.586c.404-.11 1.28-.344.96-.176a5.3 5.3 0 0 0-.269.158c-.28.171-.577.352-.626.21-.032-.096-.15-.116-.209-.127-.02-.003-.033-.005-.034-.01 0-.006.045-.019.178-.055Zm.258 3.814c-.465 0 0-.326 0-.326h.24a.66.66 0 0 0 .251-.07c.184-.075.453-.185 1.028-.185.875 0-1.054.581-1.52.581Z"/></g></g></g><defs><clipPath id="b"><rect width="36" height="24" x="3" y="2" fill="#fff" rx="2"/></clipPath><filter id="a" width="42" height="30" x="0" y="0" color-interpolation-filters="sRGB" filterUnits="userSpaceOnUse"><feFlood flood-opacity="0" result="BackgroundImageFix"/><feColorMatrix in="SourceAlpha" result="hardAlpha" values="0 0 0 0 0 0 0 0 0 0 0 0 0 0 0 0 0 0 127 0"/><feOffset dy="1"/><feGaussianBlur stdDeviation="1"/><feColorMatrix values="0 0 0 0 0.0627451 0 0 0 0 0.0941176 0 0 0 0 0.156863 0 0 0 0.06 0"/><feBlend in2="BackgroundImageFix" result="effect1_dropShadow_91_26166"/><feColorMatrix in="SourceAlpha" result="hardAlpha" values="0 0 0 0 0 0 0 0 0 0 0 0 0 0 0 0 0 0 127 0"/><feOffset dy="1"/><feGaussianBlur stdDeviation="1.5"/><feColorMatrix values="0 0 0 0 0.0627451 0 0 0 0 0.0941176 0 0 0 0 0.156863 0 0 0 0.1 0"/><feBlend in2="effect1_dropShadow_91_26166" result="effect2_dropShadow_91_26166"/><feBlend in="SourceGraphic" in2="effect2_dropShadow_91_26166" result="shape"/></filter></defs></svg>
